src/assets/cards/6S.svg

<svg clip-rule="evenodd" fill-rule="evenodd" stroke-linejoin="round" stroke-miterlimit="2" viewBox="0 0 934 1300" xmlns="http://www.w3.org/2000/svg"><g fill-rule="nonzero"><path d="m35.936 150.393c-1.693-11.441-1.668-41.02-.276-49.751 4.29-26.794 14.727-39.038 32.189-43.064 16.947-3.889 40.781.451 46.012 22.843l-14.187.263c-7.677-15.141-27.071-11.089-37.984-4.503-8.731 5.256-12.67 27.158-10.977 28.513-.012 0 16.484-11.992 29.479-11.102 27.786 2.835 39.239 26.481 38.273 48.822-.878 26.87-9.559 48.346-39.013 49.776-27.986-1.054-40.819-16.044-43.516-41.797zm69.044-7.1c.163-18.654-8.467-32.603-24.788-34.133-16.307-1.543-32.765 14.087-31.624 33.091 1.142 19.068 8.656 35.137 28.438 35.037 21.275-.088 27.874-20.724 27.974-33.995z"/><path d="m897.388 1149.61c1.706 11.44 1.681 41.02.276 49.75-4.278 26.79-14.715 39.04-32.176 43.06-16.948 3.9-40.782-.44-46.013-22.84l14.188-.27c7.677 15.14 27.07 11.09 37.984 4.51 8.718-5.26 12.67-27.16 10.976-28.51.013 0-16.483 11.99-29.479 11.1-27.785-2.84-39.238-26.48-38.272-48.83.878-26.87 9.558-48.34 39-49.77 27.998 1.05 40.831 16.04 43.516 41.8zm-69.044 7.1c-.15 18.65 8.48 32.59 24.8 34.13 16.308 1.54 32.766-14.09 31.624-33.09-1.141-19.07-8.668-35.13-28.45-35.04-21.275.09-27.861 20.73-27.974 34z"/><path d="m225.971 286.063c.083-8.442-6.583-8.604-6.5-2.442-.583 30.955-26.75 46.192-45.792 42.58-29.291-5.575-38.666-34.675-38.375-51.817.875-52.9 54.125-91.908 102.167-159.725 35.208 61.208 93.333 109.287 96.75 156.604 4.583 62.908-75.042 86.375-86.375 13.054-.75-5.179-6.833-7.504-6.375-.271 1.75 20.096-.708 28.463 21.958 77.996h-59.291c13.125-23.141 20.958-51.558 21.833-75.979z"/><path d="m690.721 286.063c.042-8.442-6.625-8.604-6.542-2.442-.583 30.955-26.75 46.192-45.75 42.58-29.333-5.575-38.666-34.675-38.416-51.817.875-52.9 54.125-91.908 102.166-159.725 35.209 61.208 93.334 109.287 96.792 156.604 4.542 62.908-75.042 86.375-86.417 13.054-.75-5.179-6.833-7.504-6.375-.271 1.75 20.096-.708 28.463 21.959 77.996h-59.25c13.125-23.141 20.916-51.558 21.833-75.979z"/><path d="m226.013 602.805c.083 8.437-6.584 8.6-6.5 2.437-.584-30.95-26.75-46.191-45.75-42.575-29.334 5.571-38.709 34.675-38.417 51.813.875 52.9 54.125 91.908 102.167 159.729 35.208-61.213 93.333-109.292 96.75-156.608 4.583-62.909-75-86.375-86.375-13.055-.75 5.18-6.834 7.505-6.375.271 1.75-20.091-.709-28.462 21.958-77.996h-59.25c13.125 23.146 20.917 51.559 21.792 75.984z"/><path d="m690.763 602.805c.041 8.437-6.625 8.6-6.542 2.437-.542-30.95-26.75-46.191-45.75-42.575-29.333 5.571-38.667 34.675-38.417 51.813.875 52.9 54.125 91.908 102.167 159.729 35.208-61.213 93.333-109.292 96.792-156.608 4.583-62.909-75.042-86.375-86.417-13.055-.75 5.18-6.833 7.505-6.375.271 1.75-20.091-.708-28.462 21.958-77.996h-59.25c13.125 23.146 20.917 51.559 21.834 75.984z"/><path d="m690.763 1013.63c.041 8.44-6.625 8.6-6.542 2.44-.542-30.953-26.75-46.19-45.75-42.578-29.333 5.575-38.667 34.678-38.417 51.818.875 52.9 54.125 91.91 102.167 159.72 35.208-61.21 93.333-109.28 96.792-156.6 4.583-62.913-75.042-86.375-86.417-13.05-.75 5.18-6.833 7.5-6.375.27 1.75-20.099-.708-28.47 21.958-78.004h-59.25c13.125 23.146 20.917 51.563 21.834 75.984z"/><path d="m226.013 1013.63c.083 8.44-6.584 8.6-6.5 2.44-.584-30.953-26.75-46.19-45.75-42.578-29.334 5.575-38.709 34.678-38.417 51.818.875 52.9 54.125 91.91 102.167 159.72 35.208-61.21 93.333-109.28 96.75-156.6 4.583-62.913-75-86.375-86.375-13.05-.75 5.18-6.834 7.5-6.375.27 1.75-20.099-.709-28.47 21.958-78.004h-59.25c13.125 23.146 20.917 51.563 21.792 75.984z"/><path d="m72.013 285.517c.041-3.629-3.709-1.933-4.25-.791-4.834 8.275-11.917 10.2-18.917 7.216-6.958-2.954-10.875-9.5-10.25-18.841 1.292-14.325 12.667-30 18.167-38.859 5.208-8.041 10.958-17.596 16.958-29.812 7.083 14.016 10.667 18.004 18.375 30.8 6.792 11.266 16.208 22.304 16.958 35.925 0 10.354-4.375 20.133-14.166 21.916-5.542 1.009-10.75-1.841-14.625-8.487-1.167-1.696-3.542-.813-3.459 1.508.667 8.721 3.959 16.596 11.75 25.879h-28.666c5.875-6.566 11.875-15.429 12.125-26.454z"/><path d="m858.763 1005.29c.041 3.64-3.75 1.94-4.25.79-4.834-8.267-11.917-10.192-18.959-7.213-6.958 2.963-10.833 9.503-10.208 18.843 1.292 14.32 12.625 30 18.125 38.86 5.208 8.04 10.958 17.59 17 29.81 7.083-14.01 10.667-18 18.333-30.8 6.792-11.27 16.25-22.3 16.959-35.93 0-10.35-4.334-20.129-14.167-21.908-5.542-1.008-10.75 1.838-14.583 8.488-1.167 1.69-3.542.81-3.5-1.51.708-8.724 4-16.599 11.791-25.882h-28.708c5.875 6.567 11.875 15.433 12.167 26.452z"/></g></svg>

<?xml version="1.0" encoding="UTF-8" standalone="no"?>
<!DOCTYPE svg PUBLIC "-//W3C//DTD SVG 1.1//EN" "http://www.w3.org/Graphics/SVG/1.1/DTD/svg11.dtd">
<svg width="100%" height="100%" viewBox="0 0 934 1300" version="1.1" xmlns="http://www.w3.org/2000/svg" xmlns:xlink="http://www.w3.org/1999/xlink" xml:space="preserve" xmlns:serif="http://www.serif.com/" style="fill-rule:evenodd;clip-rule:evenodd;stroke-linejoin:round;stroke-miterlimit:2;">
    <g id="_6S" serif:id="6S">
        <g id="path7108-6">
            <path d="M35.936,150.393C34.243,138.952 34.268,109.373 35.66,100.642C39.95,73.848 50.387,61.604 67.849,57.578C84.796,53.689 108.63,58.029 113.861,80.421L99.674,80.684C91.997,65.543 72.603,69.595 61.69,76.181C52.959,81.437 49.02,103.339 50.713,104.694C50.701,104.694 67.197,92.702 80.192,93.592C107.978,96.427 119.431,120.073 118.465,142.414C117.587,169.284 108.906,190.76 79.452,192.19C51.466,191.136 38.633,176.146 35.936,150.393ZM104.98,143.293C105.143,124.639 96.513,110.69 80.192,109.16C63.885,107.617 47.427,123.247 48.568,142.251C49.71,161.319 57.224,177.388 77.006,177.288C98.281,177.2 104.88,156.564 104.98,143.293Z" style="fill-rule:nonzero;"/>
        </g>
        <g id="path7161-6">
            <path d="M897.388,1149.61C899.094,1161.05 899.069,1190.63 897.664,1199.36C893.386,1226.15 882.949,1238.4 865.488,1242.42C848.54,1246.32 824.706,1241.98 819.475,1219.58L833.663,1219.31C841.34,1234.45 860.733,1230.4 871.647,1223.82C880.365,1218.56 884.317,1196.66 882.623,1195.31C882.636,1195.31 866.14,1207.3 853.144,1206.41C825.359,1203.57 813.906,1179.93 814.872,1157.58C815.75,1130.71 824.43,1109.24 853.872,1107.81C881.87,1108.86 894.703,1123.85 897.388,1149.61ZM828.344,1156.71C828.194,1175.36 836.824,1189.3 853.144,1190.84C869.452,1192.38 885.91,1176.75 884.768,1157.75C883.627,1138.68 876.1,1122.62 856.318,1122.71C835.043,1122.8 828.457,1143.44 828.344,1156.71Z" style="fill-rule:nonzero;"/>
        </g>
        <g id="path3208">
            <path d="M225.971,286.063C226.054,277.621 219.388,277.459 219.471,283.621C218.888,314.576 192.721,329.813 173.679,326.201C144.388,320.626 135.013,291.526 135.304,274.384C136.179,221.484 189.429,182.476 237.471,114.659C272.679,175.867 330.804,223.946 334.221,271.263C338.804,334.171 259.179,357.638 247.846,284.317C247.096,279.138 241.013,276.813 241.471,284.046C243.221,304.142 240.763,312.509 263.429,362.042L204.138,362.042C217.263,338.901 225.096,310.484 225.971,286.063Z" style="fill-rule:nonzero;"/>
        </g>
        <g id="path3210">
            <path d="M690.721,286.063C690.763,277.621 684.096,277.459 684.179,283.621C683.596,314.576 657.429,329.813 638.429,326.201C609.096,320.626 599.763,291.526 600.013,274.384C600.888,221.484 654.138,182.476 702.179,114.659C737.388,175.867 795.513,223.946 798.971,271.263C803.513,334.171 723.929,357.638 712.554,284.317C711.804,279.138 705.721,276.813 706.179,284.046C707.929,304.142 705.471,312.509 728.138,362.042L668.888,362.042C682.013,338.901 689.804,310.484 690.721,286.063Z" style="fill-rule:nonzero;"/>
        </g>
        <g id="path3268">
            <path d="M226.013,602.805C226.096,611.242 219.429,611.405 219.513,605.242C218.929,574.292 192.763,559.051 173.763,562.667C144.429,568.238 135.054,597.342 135.346,614.48C136.221,667.38 189.471,706.388 237.513,774.209C272.721,712.996 330.846,664.917 334.263,617.601C338.846,554.692 259.263,531.226 247.888,604.546C247.138,609.726 241.054,612.051 241.513,604.817C243.263,584.726 240.804,576.355 263.471,526.821L204.221,526.821C217.346,549.967 225.138,578.38 226.013,602.805Z" style="fill-rule:nonzero;"/>
        </g>
        <g id="path3270">
            <path d="M690.763,602.805C690.804,611.242 684.138,611.405 684.221,605.242C683.679,574.292 657.471,559.051 638.471,562.667C609.138,568.238 599.804,597.342 600.054,614.48C600.929,667.38 654.179,706.388 702.221,774.209C737.429,712.996 795.554,664.917 799.013,617.601C803.596,554.692 723.971,531.226 712.596,604.546C711.846,609.726 705.763,612.051 706.221,604.817C707.971,584.726 705.513,576.355 728.179,526.821L668.929,526.821C682.054,549.967 689.846,578.38 690.763,602.805Z" style="fill-rule:nonzero;"/>
        </g>
        <g id="path3272">
            <path d="M690.763,1013.63C690.804,1022.07 684.138,1022.23 684.221,1016.07C683.679,985.117 657.471,969.88 638.471,973.492C609.138,979.067 599.804,1008.17 600.054,1025.31C600.929,1078.21 654.179,1117.22 702.221,1185.03C737.429,1123.82 795.554,1075.75 799.013,1028.43C803.596,965.517 723.971,942.055 712.596,1015.38C711.846,1020.56 705.763,1022.88 706.221,1015.65C707.971,995.551 705.513,987.18 728.179,937.646L668.929,937.646C682.054,960.792 689.846,989.209 690.763,1013.63Z" style="fill-rule:nonzero;"/>
        </g>
        <g id="path3274">
            <path d="M226.013,1013.63C226.096,1022.07 219.429,1022.23 219.513,1016.07C218.929,985.117 192.763,969.88 173.763,973.492C144.429,979.067 135.054,1008.17 135.346,1025.31C136.221,1078.21 189.471,1117.22 237.513,1185.03C272.721,1123.82 330.846,1075.75 334.263,1028.43C338.846,965.517 259.263,942.055 247.888,1015.38C247.138,1020.56 241.054,1022.88 241.513,1015.65C243.263,995.551 240.804,987.18 263.471,937.646L204.221,937.646C217.346,960.792 225.138,989.209 226.013,1013.63Z" style="fill-rule:nonzero;"/>
        </g>
        <g id="path3326">
            <path d="M72.013,285.517C72.054,281.888 68.304,283.584 67.763,284.726C62.929,293.001 55.846,294.926 48.846,291.942C41.888,288.988 37.971,282.442 38.596,273.101C39.888,258.776 51.263,243.101 56.763,234.242C61.971,226.201 67.721,216.646 73.721,204.43C80.804,218.446 84.388,222.434 92.096,235.23C98.888,246.496 108.304,257.534 109.054,271.155C109.054,281.509 104.679,291.288 94.888,293.071C89.346,294.08 84.138,291.23 80.263,284.584C79.096,282.888 76.721,283.771 76.804,286.092C77.471,294.813 80.763,302.688 88.554,311.971L59.888,311.971C65.763,305.405 71.763,296.542 72.013,285.517Z" style="fill-rule:nonzero;"/>
        </g>
        <g id="path3340">
            <path d="M858.763,1005.29C858.804,1008.93 855.013,1007.23 854.513,1006.08C849.679,997.813 842.596,995.888 835.554,998.867C828.596,1001.83 824.721,1008.37 825.346,1017.71C826.638,1032.03 837.971,1047.71 843.471,1056.57C848.679,1064.61 854.429,1074.16 860.471,1086.38C867.554,1072.37 871.138,1068.38 878.804,1055.58C885.596,1044.31 895.054,1033.28 895.763,1019.65C895.763,1009.3 891.429,999.521 881.596,997.742C876.054,996.734 870.846,999.58 867.013,1006.23C865.846,1007.92 863.471,1007.04 863.513,1004.72C864.221,995.996 867.513,988.121 875.304,978.838L846.596,978.838C852.471,985.405 858.471,994.271 858.763,1005.29Z" style="fill-rule:nonzero;"/>
        </g>
    </g>
</svg>
